static/img/kroki/63e099f06595ca64210d9f42204ff41c.svg

<?xml version="1.0" encoding="us-ascii" standalone="no"?><svg xmlns="http://www.w3.org/2000/svg" xmlns:xlink="http://www.w3.org/1999/xlink" contentStyleType="text/css" height="374px" preserveAspectRatio="none" style="width:497px;height:374px;" version="1.1" viewBox="0 0 497 374" width="497px" zoomAndPan="magnify"><defs/><g><!--class azure_machine_learning_featureset_container--><g id="elem_azure_machine_learning_featureset_container"><rect codeLine="23" fill="#3D176E" height="39.7891" id="azure_machine_learning_featureset_container" rx="2.5" ry="2.5" style="stroke:#000D19;stroke-width:0.5;" width="430" x="7" y="328.58"/><ellipse cx="22" cy="348.4745" fill="#ADD1B2" rx="11" ry="11" style="stroke:#181818;stroke-width:1.0;"/><path d="M24.9688,354.1152 Q24.3906,354.412 23.75,354.5527 Q23.1094,354.7089 22.4063,354.7089 Q19.9063,354.7089 18.5781,353.0683 Q17.2656,351.412 17.2656,348.287 Q17.2656,345.162 18.5781,343.5058 Q19.9063,341.8495 22.4063,341.8495 Q23.1094,341.8495 23.75,342.0058 Q24.4063,342.162 24.9688,342.4589 L24.9688,345.1777 Q24.3438,344.5995 23.75,344.3339 Q23.1563,344.0527 22.5313,344.0527 Q21.1875,344.0527 20.5,345.1308 Q19.8125,346.1933 19.8125,348.287 Q19.8125,350.3808 20.5,351.4589 Q21.1875,352.5214 22.5313,352.5214 Q23.1563,352.5214 23.75,352.2558 Q24.3438,351.9745 24.9688,351.3964 L24.9688,354.1152 Z " fill="#000000"/><text fill="#D9B8FF" font-family="Helvetica" font-size="17" lengthAdjust="spacing" textLength="388" x="41" y="354.3598">azure_machine_learning_featureset_container</text></g><!--class azure_proxy_resource--><g id="elem_azure_proxy_resource"><rect codeLine="26" fill="#3D176E" height="39.7891" id="azure_proxy_resource" rx="2.5" ry="2.5" style="stroke:#000D19;stroke-width:0.5;" width="224" x="31" y="167.79"/><ellipse cx="46" cy="187.6845" fill="#ADD1B2" rx="11" ry="11" style="stroke:#181818;stroke-width:1.0;"/><path d="M48.9688,193.3252 Q48.3906,193.622 47.75,193.7627 Q47.1094,193.9189 46.4063,193.9189 Q43.9063,193.9189 42.5781,192.2783 Q41.2656,190.622 41.2656,187.497 Q41.2656,184.372 42.5781,182.7158 Q43.9063,181.0595 46.4063,181.0595 Q47.1094,181.0595 47.75,181.2158 Q48.4063,181.372 48.9688,181.6689 L48.9688,184.3877 Q48.3438,183.8095 47.75,183.5439 Q47.1563,183.2627 46.5313,183.2627 Q45.1875,183.2627 44.5,184.3408 Q43.8125,185.4033 43.8125,187.497 Q43.8125,189.5908 44.5,190.6689 Q45.1875,191.7314 46.5313,191.7314 Q47.1563,191.7314 47.75,191.4658 Q48.3438,191.1845 48.9688,190.6064 L48.9688,193.3252 Z " fill="#000000"/><text fill="#D9B8FF" font-family="Helvetica" font-size="17" lengthAdjust="spacing" textLength="182" x="65" y="193.5698">azure_proxy_resource</text></g><!--class microsoft_resource--><g id="elem_microsoft_resource"><rect codeLine="29" fill="#3D176E" height="39.7891" id="microsoft_resource" rx="2.5" ry="2.5" style="stroke:#000D19;stroke-width:0.5;" width="200" x="290" y="167.79"/><ellipse cx="305" cy="187.6845" fill="#ADD1B2" rx="11" ry="11" style="stroke:#181818;stroke-width:1.0;"/><path d="M307.9688,193.3252 Q307.3906,193.622 306.75,193.7627 Q306.1094,193.9189 305.4063,193.9189 Q302.9063,193.9189 301.5781,192.2783 Q300.2656,190.622 300.2656,187.497 Q300.2656,184.372 301.5781,182.7158 Q302.9063,181.0595 305.4063,181.0595 Q306.1094,181.0595 306.75,181.2158 Q307.4063,181.372 307.9688,181.6689 L307.9688,184.3877 Q307.3438,183.8095 306.75,183.5439 Q306.1563,183.2627 305.5313,183.2627 Q304.1875,183.2627 303.5,184.3408 Q302.8125,185.4033 302.8125,187.497 Q302.8125,189.5908 303.5,190.6689 Q304.1875,191.7314 305.5313,191.7314 Q306.1563,191.7314 306.75,191.4658 Q307.3438,191.1845 307.9688,190.6064 L307.9688,193.3252 Z " fill="#000000"/><text fill="#D9B8FF" font-family="Helvetica" font-size="17" lengthAdjust="spacing" textLength="158" x="324" y="193.5698">microsoft_resource</text></g><!--class resource--><g id="elem_resource"><rect codeLine="32" fill="#3D176E" height="39.7891" id="resource" rx="2.5" ry="2.5" style="stroke:#000D19;stroke-width:0.5;" width="113" x="333.5" y="7"/><ellipse cx="348.5" cy="26.8945" fill="#ADD1B2" rx="11" ry="11" style="stroke:#181818;stroke-width:1.0;"/><path d="M351.4688,32.5352 Q350.8906,32.832 350.25,32.9727 Q349.6094,33.1289 348.9063,33.1289 Q346.4063,33.1289 345.0781,31.4883 Q343.7656,29.832 343.7656,26.707 Q343.7656,23.582 345.0781,21.9258 Q346.4063,20.2695 348.9063,20.2695 Q349.6094,20.2695 350.25,20.4258 Q350.9063,20.582 351.4688,20.8789 L351.4688,23.5977 Q350.8438,23.0195 350.25,22.7539 Q349.6563,22.4727 349.0313,22.4727 Q347.6875,22.4727 347,23.5508 Q346.3125,24.6133 346.3125,26.707 Q346.3125,28.8008 347,29.8789 Q347.6875,30.9414 349.0313,30.9414 Q349.6563,30.9414 350.25,30.6758 Q350.8438,30.3945 351.4688,29.8164 L351.4688,32.5352 Z " fill="#000000"/><text fill="#D9B8FF" font-family="Helvetica" font-size="17" lengthAdjust="spacing" textLength="71" x="367.5" y="32.7798">resource</text></g><!--reverse link azure_proxy_resource to azure_machine_learning_featureset_container--><g id="link_azure_proxy_resource_azure_machine_learning_featureset_container"><path codeLine="35" d="M160.546,223.9566 C175.726,254.4766 197.23,297.69 212.44,328.25 " fill="none" id="azure_proxy_resource-backto-azure_machine_learning_featureset_container" style="stroke:#FFAF37;stroke-width:2.0;"/><polygon fill="none" points="152.53,207.84,155.1738,226.6286,165.9182,221.2845,152.53,207.84" style="stroke:#FFAF37;stroke-width:2.0;"/></g><!--reverse link microsoft_resource to azure_machine_learning_featureset_container--><g id="link_microsoft_resource_azure_machine_learning_featureset_container"><path codeLine="36" d="M356.6567,220.2023 C324.3567,250.7223 274.67,297.69 242.34,328.25 " fill="none" id="microsoft_resource-backto-azure_machine_learning_featureset_container" style="stroke:#FFAF37;stroke-width:2.0;"/><polygon fill="none" points="369.74,207.84,352.5359,215.8412,360.7775,224.5634,369.74,207.84" style="stroke:#FFAF37;stroke-width:2.0;"/></g><!--reverse link resource to microsoft_resource--><g id="link_resource_microsoft_resource"><path codeLine="37" d="M390,65.05 C390,95.57 390,136.9 390,167.46 " fill="none" id="resource-backto-microsoft_resource" style="stroke:#FFAF37;stroke-width:2.0;"/><polygon fill="none" points="390,47.05,384,65.05,396,65.05,390,47.05" style="stroke:#FFAF37;stroke-width:2.0;"/></g><!--SRC=[bP11Jy9048Nl_HMRU2O1YGA95oGnUY56l3V3xYpTqDrjPgSYgF_TLjGiRO5mdVVDUsycCme5seAtmg9T8eKah8qhWC2AAP7Vp7pkILnf3NeuQeeFtl5PO0uMnIFcRyX6GfDupOnSEmn1N4VIFSZrYdpfrDwU2Loe97GSKRCSGfWoarcMZ54PDLcEjMwIJTEheHgCRh65UL98lqY_trU3IHCv6tNoxdzYONOe1l7JvfwnLRCLyKETR5aJKSdMeN_wqOxFe9HnAt4JpLxsdSWX7SmN6IY_gMaDUOXZ0YEXvss1izPLE1ahFUg4dux1YQnV9s1N4gOMP6OSfZa2kIezrGXS2G4vbTLjOEgY7qdoTR1Ma7_VfXNcIv8OwzP8yi5hxbGFPvrUTv-zNk-ITab7vEKcZTMsP_8D]--></g></svg>

<svg xmlns="http://www.w3.org/2000/svg" width="497" height="374" viewBox="0 0 497 374"><rect width="430" height="39.789" x="7" y="328.58" fill="#3D176E" rx="2.5" ry="2.5" style="stroke:#000d19;stroke-width:.5"/><circle cx="22" cy="348.474" r="11" fill="#ADD1B2" style="stroke:#181818;stroke-width:1"/><path d="M24.969 354.115q-.578.297-1.219.438-.64.156-1.344.156-2.5 0-3.828-1.64-1.312-1.657-1.312-4.782t1.312-4.781q1.328-1.656 3.828-1.656.703 0 1.344.156.656.156 1.219.453v2.719q-.625-.579-1.219-.844-.594-.281-1.219-.281-1.343 0-2.031 1.078-.687 1.062-.687 3.156t.687 3.172q.688 1.062 2.031 1.062.625 0 1.219-.265.594-.281 1.219-.86z"/><text x="41" y="354.36" fill="#D9B8FF" font-family="Helvetica" font-size="17" textLength="388">azure_machine_learning_featureset_container</text><rect width="224" height="39.789" x="31" y="167.79" fill="#3D176E" rx="2.5" ry="2.5" style="stroke:#000d19;stroke-width:.5"/><circle cx="46" cy="187.685" r="11" fill="#ADD1B2" style="stroke:#181818;stroke-width:1"/><path d="M48.969 193.325q-.578.297-1.219.438-.64.156-1.344.156-2.5 0-3.828-1.64-1.312-1.657-1.312-4.782t1.312-4.781q1.328-1.656 3.828-1.656.703 0 1.344.156.656.156 1.219.453v2.719q-.625-.578-1.219-.844-.594-.281-1.219-.281-1.343 0-2.031 1.078-.687 1.062-.687 3.156t.687 3.172q.688 1.062 2.031 1.062.625 0 1.219-.265.594-.281 1.219-.86z"/><text x="65" y="193.57" fill="#D9B8FF" font-family="Helvetica" font-size="17" textLength="182">azure_proxy_resource</text><rect width="200" height="39.789" x="290" y="167.79" fill="#3D176E" rx="2.5" ry="2.5" style="stroke:#000d19;stroke-width:.5"/><circle cx="305" cy="187.685" r="11" fill="#ADD1B2" style="stroke:#181818;stroke-width:1"/><path d="M307.969 193.325q-.578.297-1.219.438-.64.156-1.344.156-2.5 0-3.828-1.64-1.312-1.657-1.312-4.782t1.312-4.781q1.328-1.656 3.828-1.656.703 0 1.344.156.656.156 1.219.453v2.719q-.625-.578-1.219-.844-.594-.281-1.219-.281-1.344 0-2.031 1.078-.687 1.062-.687 3.156t.687 3.172q.688 1.062 2.031 1.062.625 0 1.219-.265.594-.281 1.219-.86z"/><text x="324" y="193.57" fill="#D9B8FF" font-family="Helvetica" font-size="17" textLength="158">microsoft_resource</text><rect width="113" height="39.789" x="333.5" y="7" fill="#3D176E" rx="2.5" ry="2.5" style="stroke:#000d19;stroke-width:.5"/><circle cx="348.5" cy="26.895" r="11" fill="#ADD1B2" style="stroke:#181818;stroke-width:1"/><path d="M351.469 32.535q-.578.297-1.219.438-.64.156-1.344.156-2.5 0-3.828-1.64-1.312-1.657-1.312-4.782t1.312-4.781q1.328-1.656 3.828-1.656.703 0 1.344.156.656.156 1.219.453v2.719q-.625-.578-1.219-.844-.594-.281-1.219-.281-1.344 0-2.031 1.078-.687 1.062-.687 3.156t.687 3.172q.688 1.062 2.031 1.062.625 0 1.219-.265.594-.281 1.219-.86z"/><text x="367.5" y="32.78" fill="#D9B8FF" font-family="Helvetica" font-size="17" textLength="71">resource</text><g fill="none"><path d="M160.546 223.957c15.18 30.52 36.684 73.733 51.894 104.293" style="stroke:#ffaf37;stroke-width:2"/><path d="m152.53 207.84 2.644 18.789 10.744-5.344z" style="stroke:#ffaf37;stroke-width:2"/></g><g fill="none"><path d="M356.657 220.202c-32.3 30.52-81.987 77.488-114.317 108.048" style="stroke:#ffaf37;stroke-width:2"/><path d="m369.74 207.84-17.204 8.001 8.241 8.722z" style="stroke:#ffaf37;stroke-width:2"/></g><path fill="none" d="M390 65.05v102.41m0-120.41-6 18h12z" style="stroke:#ffaf37;stroke-width:2"/></svg>
